X: 13244
T: Fishing At Orbost
R: reel
M: 4/4
K: Amajor
AB|:BccB cceB|BcBA AeBA|BccB ccef|BccB AeBA|
cddc acdc|acdc dceA|BccB ccef|BccB A2AB:|
|:Bcca eeAe|feeA AeBA|Bcca eeAe|fABA AeBA|
cddA ddcd|fdec dcBA|cddA ddAc|faea aceA:|

